Numix/16/emotes/face-sick.svg

<?xml version="1.0" encoding="UTF-8" standalone="no"?>
<svg
   xmlns:dc="http://purl.org/dc/elements/1.1/"
   xmlns:cc="http://creativecommons.org/ns#"
   xmlns:rdf="http://www.w3.org/1999/02/22-rdf-syntax-ns#"
   xmlns:svg="http://www.w3.org/2000/svg"
   xmlns="http://www.w3.org/2000/svg"
   xmlns:sodipodi="http://sodipodi.sourceforge.net/DTD/sodipodi-0.dtd"
   xmlns:inkscape="http://www.inkscape.org/namespaces/inkscape"
   width="16px"
   height="16px"
   viewBox="0 0 12 12"
   version="1.1"
   id="svg3309"
   inkscape:version="0.91 r"
   sodipodi:docname="face-sick.svg">
  <metadata
     id="metadata3326">
    <rdf:RDF>
      <cc:Work
         rdf:about="">
        <dc:format>image/svg+xml</dc:format>
        <dc:type
           rdf:resource="http://purl.org/dc/dcmitype/StillImage" />
      </cc:Work>
    </rdf:RDF>
  </metadata>
  <defs
     id="defs3324" />
  <sodipodi:namedview
     pagecolor="#ffffff"
     bordercolor="#666666"
     borderopacity="1"
     objecttolerance="10"
     gridtolerance="10"
     guidetolerance="10"
     inkscape:pageopacity="0"
     inkscape:pageshadow="2"
     inkscape:window-width="640"
     inkscape:window-height="480"
     id="namedview3322" />
  <g
     id="surface1">
    <path
       style=" stroke:none;fill-rule:nonzero;fill:rgb(58.039216%,86.27451%,47.843137%);fill-opacity:1;"
       d="M 11.25 6 C 11.25 8.484375 8.898438 10.5 6 10.5 C 3.101562 10.5 0.75 8.484375 0.75 6 C 0.75 3.515625 3.097656 1.5 6 1.5 C 8.902344 1.5 11.25 3.515625 11.25 6 Z M 11.25 6 "
       id="path3312" />
    <path
       style=" stroke:none;fill-rule:nonzero;fill:rgb(38.823529%,38.823529%,38.823529%);fill-opacity:1;"
       d="M 4.652344 4.746094 L 3.304688 5.109375 C 3.292969 5.167969 3.28125 5.230469 3.28125 5.296875 C 3.28125 5.738281 3.636719 6.09375 4.078125 6.09375 C 4.519531 6.09375 4.875 5.738281 4.875 5.296875 C 4.875 5.082031 4.789062 4.890625 4.652344 4.746094 Z M 4.652344 4.746094 "
       id="path3314" />
    <path
       style=" stroke:none;fill-rule:nonzero;fill:rgb(38.823529%,38.823529%,38.823529%);fill-opacity:1;"
       d="M 7.347656 4.746094 C 7.210938 4.890625 7.125 5.082031 7.125 5.296875 C 7.125 5.738281 7.480469 6.09375 7.921875 6.09375 C 8.363281 6.09375 8.71875 5.738281 8.71875 5.296875 C 8.71875 5.230469 8.707031 5.167969 8.695312 5.109375 Z M 7.347656 4.746094 "
       id="path3316" />
    <path
       style=" stroke:none;fill-rule:nonzero;fill:rgb(38.823529%,38.823529%,38.823529%);fill-opacity:1;"
       d="M 5.316406 7.167969 L 7.082031 8.933594 C 7.179688 9.03125 7.179688 9.191406 7.082031 9.289062 L 7.039062 9.332031 C 6.941406 9.429688 6.78125 9.429688 6.683594 9.332031 L 4.917969 7.566406 C 4.820312 7.46875 4.820312 7.308594 4.917969 7.210938 L 4.960938 7.167969 C 5.058594 7.070312 5.21875 7.070312 5.316406 7.167969 Z M 5.316406 7.167969 "
       id="path3318" />
    <path
       style=" stroke:none;fill-rule:nonzero;fill:rgb(38.823529%,38.823529%,38.823529%);fill-opacity:1;"
       d="M 7.082031 7.566406 L 5.316406 9.332031 C 5.21875 9.429688 5.058594 9.429688 4.960938 9.332031 L 4.917969 9.289062 C 4.820312 9.191406 4.820312 9.03125 4.917969 8.933594 L 6.683594 7.167969 C 6.78125 7.070312 6.941406 7.070312 7.039062 7.167969 L 7.082031 7.210938 C 7.179688 7.308594 7.179688 7.46875 7.082031 7.566406 Z M 7.082031 7.566406 "
       id="path3320" />
  </g>
</svg>

<svg xmlns="http://www.w3.org/2000/svg" width="16" height="16" viewBox="0 0 12 12">
 <g>
  <path d="m 11.25 6 c 0 2.484 -2.352 4.5 -5.25 4.5 c -2.898 0 -5.25 -2.02 -5.25 -4.5 c 0 -2.484 2.348 -4.5 5.25 -4.5 c 2.902 0 5.25 2.02 5.25 4.5 m 0 0" style="fill:#94dc79;fill-opacity:1;stroke:none;fill-rule:nonzero"/>
  <path d="m 4.652 4.746 l -1.348 0.363 c -0.012 0.059 -0.023 0.121 -0.023 0.188 c 0 0.441 0.355 0.797 0.797 0.797 c 0.441 0 0.797 -0.355 0.797 -0.797 c 0 -0.215 -0.086 -0.406 -0.223 -0.551 m 0 0" style="fill:#626262;fill-opacity:1;stroke:none;fill-rule:nonzero"/>
  <path d="m 7.348 4.746 c -0.137 0.145 -0.223 0.336 -0.223 0.551 c 0 0.441 0.355 0.797 0.797 0.797 c 0.441 0 0.797 -0.355 0.797 -0.797 c 0 -0.066 -0.012 -0.129 -0.023 -0.188 m -1.348 -0.363" style="fill:#626262;fill-opacity:1;stroke:none;fill-rule:nonzero"/>
  <path d="m 5.316 7.168 l 1.766 1.766 c 0.098 0.098 0.098 0.258 0 0.355 l -0.043 0.043 c -0.098 0.098 -0.258 0.098 -0.355 0 l -1.766 -1.766 c -0.098 -0.098 -0.098 -0.258 0 -0.355 l 0.043 -0.043 c 0.098 -0.098 0.258 -0.098 0.355 0 m 0 0" style="fill:#626262;fill-opacity:1;stroke:none;fill-rule:nonzero"/>
  <path d="m 7.082 7.566 l -1.766 1.766 c -0.098 0.098 -0.258 0.098 -0.355 0 l -0.043 -0.043 c -0.098 -0.098 -0.098 -0.258 0 -0.355 l 1.766 -1.766 c 0.098 -0.098 0.258 -0.098 0.355 0 l 0.043 0.043 c 0.098 0.098 0.098 0.258 0 0.355 m 0 0" style="fill:#626262;fill-opacity:1;stroke:none;fill-rule:nonzero"/>
 </g>
</svg>
